X:1
T:Harpsichord Transcription In D Major
T:Concerto Transcription after Vivaldi in D Major I 
T:Antonio Lucio Vivaldi - Johann Sebastian Bach
C:A. Vivaldi / J. S. Bach
%%score { ( 1 2 ) | ( 3 4 ) } { ( 5 6 ) | ( 7 8 9 10 ) }
L:1/8
Q:1/4=110
M:4/4
K:D
V:1 treble nm="Cembalo."
V:2 treble 
V:3 bass 
V:4 bass 
V:5 treble nm="Cembalo. ( Sound )"
V:6 treble 
V:7 bass 
V:8 bass 
V:9 bass 
V:10 bass 
V:1
 f/ |[Q:1/4=76] f3 z/[Q:1/4=110] f/[Q:1/4=90] fa/g/[Q:1/4=86] a[Q:1/4=76]a | %2
[Q:1/4=76] d3 z/[Q:1/4=110] d/[Q:1/4=90] df/e/ f[Q:1/4=86]f | %3
[Q:1/4=76] B3 z/[Q:1/4=110] B/[Q:1/4=90] Bd/c/[Q:1/4=86] d[Q:1/4=76]d | %4
[Q:1/4=44]{d} c2[Q:1/4=60] z a e/d/e/g/[Q:1/4=102] f/e/f/a/[Q:1/4=30][Q:1/4=100] | %5
[Q:1/4=104] g/f/g/b/[Q:1/4=106] g/b/a/g/[Q:1/4=108] f/e/f/g/ f/a/g/f/ | eA z a fa/g/ aa | %7
 ea/g/ aa fa/g/ aa | ea/g/ aa f/a/g/f/ e/d/c/B/ | AdGc df/e/ de | f/g/f/e/ de fg ag/f/ | %11
 eA z/ a/b/a/ f/g/e/f/ d/g/f/g/ | e/f/d/e/ c/f/e/f/ d/e/c/d/ B/e/d/e/ | %13
 c/d/B/c/ A/e/d/e/ f/^g/e/f/ g/a/f/g/ | (a/^g/a/b/) (a/g/a/b/) (a/g/a/b/) (a/g/a/b/) | %15
 (a/^g/a/b/) (a/g/a/b/) (a/g/a/b/) g/a/b/g/ | aA z/ a/g/f/ e/d/c/e/ f/g/f/g/ | %17
 e/d/c/e/ f/g/f/g/ e/d/c/e/ f/g/f/g/ | eA z/ e/f/e/ d/c/B/c/ d/e/d/e/ | %19
 d/c/B/c/ d/e/d/e/ d/c/B/c/ d/f/e/d/ | c/d/c/B/ A/a/b/a/ g/f/e/f/ g/a/g/a/ | %21
 g/f/e/f/ g/b/a/g/ f/e/d/e/ f/g/f/g/ | f/e/d/e/ f/a/"^( ♯ )"g/f/ e/d/c/d/ e/f/e/f/ | %23
 e/d/c/d/ e/g/f/e/ d/f/e/f/ c/f/e/f/ | d/f/e/f/ c/f/e/f/ dB ff | fg/f/ ee ef/e/ dd | %26
 d/f/e/d/[Q:1/4=90] Tc2[Q:1/4=100] B2[Q:1/4=96][Q:1/4=102] f[Q:1/4=104]f | %27
[Q:1/4=106] f/a/g/f/[Q:1/4=107] ee[Q:1/4=108] e/g/f/e/ d(b/a/) | %28
 (g/f/e/d/)[Q:1/4=86] c>[Q:1/4=100]B B/f/e/f/[Q:1/4=104] d/e/c/d/ | %29
[Q:1/4=108] B/B/c/d/ B/B/c/^d/ e/g/f/g/ e/f/=d/e/ | c/c/d/e/ c/c/d/e/ f/a/g/a/ f/g/e/f/ | %31
 d/d/e/f/ d/d/e/f/ g/a/b/a/ g/a/f/g/ | e/f/g/f/ e/f/d/e/ c/d/e/d/ c/d/B/c/ | %33
 A2 z/ a/g/f/ e/d/c/e/ f/g/f/g/ | e/d/c/e/ f/g/f/g/ e/d/c/e/ f/g/f/g/ | eA aa ag/f/ gg | %36
 gf/e/ ff fe/d/ ee | ed/c/ dd d2 c2 | da/g/ aa ea/g/ aa | fa/g/ aa ea/g/ aa | %40
 f/g/f/e/ df e/d/e/g/ f/e/f/a/ | g/f/g/a/ g/b/a/g/ f/e/f/g/ f/a/g/f/ | %42
 (e/d/c/e/) (f/e/d/f/) (e/d/c/e/) (f/e/d/f/) | (e/d/c/e/) (d/c/B/d/) (c/B/A/c/) (d/c/B/d/) | %44
 (c/B/A/c/) (d/c/B/d/) (e/d/c/e/) (f/e/d/f/) | (g/f/e/f/) (g/f/g/e/) (a/g/a/b/) (a/g/a/b/) | %46
 (a/g/a/b/) (a/g/a/b/) (a/g/a/b/) (a/g/a/b/) | ag/f/ e/d/c/B/ cA ff | ee/d/ ee da/g/ aa | %49
 ea/g/ aa fa/g/ aa | ea/g/ aa f/a/g/f/ e/d/c/B/ | %51
 A[Q:1/4=100]d[Q:1/4=80] G[Q:1/4=76]c !fermata!d4[Q:1/4=44] |] %52
V:2
 [Ad]/ | [Ad]3 z/ [Ad]/ [Ad]2 [Ac][Gc] | [FB]3 z/ [FB]/ [FB]2 [FA][EA] | %3
 [DG]3 z/ [DG]/ [DG]2 [FA][FA] | [EA]2 x6 | x8 | x3 [ce] [Ad]2 z2 | [Ae]2 z2 [Ad]2 z2 | %8
 A2 z2 A2 E2 | EF E2 [FA] z z2 | x8 | x8 | x8 | x8 | x8 | x8 | x8 | x8 | x8 | x8 | x8 | x8 | x8 | %23
 x8 | x6 z d | d2 z c c2 z B | B2 ^A2 B2 dc | B2 z2 ^A2 B2 | z2 ^A2 x4 | x8 | x8 | x8 | x8 | x8 | %34
 x8 | x2 z [cf] [Bf]2 z [Be] | [Ae]2 z [Ad] [Gd]2 z [Gc] | [Fc]2 z [FB] [EB]2 [EGA]2 | %38
 [FA] z2 [df] [ce]2 z [ce] | [df]2 z [df] [ce]2 z [ce] | d2 x6 | x8 | x8 | x8 | x8 | x8 | x8 | %47
 x6 [Ad][Ad] | [Bd]2 [Ac][Gc] [FA] z2 [df] | [ce]2 z [Ae] [Ad]2 z [df] | [ce]2 z [Ae] [Ad] z z2 | %51
 F2 E2 [FA]4 |] %52
V:3
 D/ | D3 z/ D/ D2 A,2 | B,3 z/ B,/ B,2 F,2 | G,3 z/ G,/ G,2 D,2 | A,2 z2 [E,A,]2 A,2 | %5
 [B,,D,E,]2 [C,E,]2 z A, D2 | C z2 [E,A,] [F,A,]2 z2 | C2 z2 [A,D]2 z2 | C2 z2 [A,D]2 B,2 | %9
 CA, A,2 A,2 z C | D2 z A, A,2 D2 | CDEC[K:treble] DFBB, | CEAA, B,DE^G, | A,B,CA,[K:bass] D,DE,E | %14
 A,[CE] ^G,[B,E] F,[A,C] E,[G,C] | D,[F,A,] C,[E,A,] D,[F,A,] E,E,, | z/ A,/B,/C/ DD CCDD | %17
 CCDD CCDD | C z2 [C,E,A,] [^G,B,][G,B,][G,B,][G,B,] | %19
 [^G,B,][G,B,][G,B,][G,B,] [G,B,][G,B,][G,B,][G,B,] | A,B, CD E/D/C/B,/ A,C | %21
 E/D/C/B,/ A,C DA,D,A, | D/C/B,/A,/ ^G,B, CG,C,G, | C/B,/^A,/^G,/ F,A, B,B,,^A,,A, | %24
 B,B,,^A,,^A, B,2 z B, | G,2 z F, F,2 z F, | G,E, F,2 B,,/F,/^G,/^A,/ B,/D/E/F/ | %27
 GG, z/ C/D/E/ FF, z/ B,/C/D/ | ECFF, B,B,, z2 | %29
 B,,/D,/F,/B,/ A,,/^D,/F,/B,/ G,,/E,/=D,/E,/ C,/D,/B,,/C,/ | %30
 A,,/C,/E,/A,/ A,,/C,/E,/G,/ D,/F,/E,/F,/ D,/E,/C,/D,/ | %31
 B,,/D,/F,/B,/ B,,/D,/F,/A,/ E,/F,/G,/F,/ E,/F,/D,/E,/ | C,/D,/E,/D,/ C,/D,/B,,/C,/ A,,2 z2 | %33
 z/ A,/B,/C/ DD CCDD | CCDD CCDD |[K:treble] A,/A/G/A/ F/G/E/F/ D/F/B,/D/[K:bass] E,/E/D/E/ | %36
 C/E/A,/C/ D,/D/C/D/ B,/D/G,/B,/ C,/C/B,/C/ | %37
 A,/C/F,/A,/ B,,/B,/A,/B,/ G,/B,/E,/G,/ A,,/A,/G,/A,/ | D,2 z A,/^G,/ A,A,, z A,/^G,/ | %39
 A,D, z A,/^G,/ A,A,, z/ A,/=G,/A,/ | D,A, z/ A,/G,/A,/ z/ A,/G,/A,/ z/ B,/A,/B,/ | %41
 z/ C/B,/C/ z/ C/B,/C/ D/C/D/A,/ D,/F,/E,/D,/ | A,8- | A,8- | A,8- | %45
 A,2 z/ A,/B,/C/ D/F/E/D/ C/B,/A,/G,/ | F,/B,/A,/G,/ F,/E,/D,/C,/ D,/F,/E,/D,/ C,/B,,/A,,/G,,/ | %47
 F,,/A,,/B,,/A,,/ G,,/F,,/E,,/D,,/ A,,/G,,/F,,/E,,/ D,,/D,/C,/D,/ | %48
 G,,/G,/F,/G,/ A,,/A,/G,/A,/ D,2 z[K:treble] A/^G/ | AA, z[K:bass] D/C/ DD, z A,/^G,/ | %50
 A,A,, z D,/C,/ D,/D,,/E,,/F,,/ G,,/A,,/B,,/C,/ | D,/E,/F,/G,/ A,/G,/A,/A,,/ !fermata![D,,D,]4 |] %52
V:4
 x/ | x8 | x8 | x8 | x4 C,2 D,2 | G,,2 A,,2 D,3 D, | A,A,,/B,,/ C,A,, D,2 z2 | A,2 z2 D,2 z2 | %8
 A,2 z2 D,2 G,2 | A,F,/G,/ A,A,, D,2 z A, | D,2 z C, D,E,F,D, | A,B,CA,[K:treble] x4 | x8 | %13
 x4[K:bass] x4 | A,2 ^G,2 F,2 E,2 | D,2 C,2 D,2 E,2 | A,, z2 D, A,A,D,D, | A,A,D,D, A,A,D,D, | %18
 A,A,,/B,,/ C,A,, E,E,E,E, | E,E,E,E, E,E,E,E, | A,, z x6 | x8 | x8 | x8 | x4 z B,,/C,/ D,B,, | %25
 C,B,,C,^A,, B,,C,D,B,, | E,C, F,F,, x4 | x8 | x8 | x8 | x8 | x8 | x8 | A,, z2 D, A,A,D,D, | %34
 A,A,D,D, A,A,D,D, |[K:treble] x6[K:bass] x2 | x8 | x8 | x8 | x8 | x4 C,2 D,2 | E,2 A,2 x4 | %42
 z A,,3- A,,4- | A,,8- | A,,8- | A,,2 x6 | x8 | x8 | x7[K:treble] x | x3[K:bass] x5 | x8 | x8 |] %52
V:5
!mf! !tenuto!.f/ | !tenuto!.f3 z/ !tenuto!.f/ f a/ g/ a a | %2
 !arpeggio![B,FBd]3 z/ !tenuto!.d/ d f/ e/ f f | !arpeggio![G,DGB]3 z/ !tenuto!.B/ B d/ c/ d d | %4
 z/4 d3/4 c z a e/ d/ e/ g/ f/ e/ f/ a/ | g/ f/ g/ b/ g/ b/ a/ g/ f/ e/ f/ g/ f/ a/ g/ f/ | %6
 e A z a f a/ g/ .a .a | e a/ g/ .a .a f a/ g/ .a .a | e a/ g/ .a .a f/ a/ g/ f/ e/ d/ c/ B/ | %9
 .A .d .G .c d!mp! f/ e/ d e | f/ g/ f/ e/ d e f g a g/ f/ | %11
 e .A z/ a/ b/ a/ f/ g/ e/ f/ d/ g/ f/ g/ | e/ f/ d/ e/ c/ f/ e/ f/ d/ e/ c/ d/ B/ e/ d/ e/ | %13
 c/ d/ B/ c/ A/ e/ d/ e/ f/ ^g/ e/ f/ g/ a/ f/ g/ | %14
 (a/ ^g/ a/ b/) (a/ g/ a/ b/) (a/ g/ a/ b/) (a/ g/ a/ b/) | %15
 (a/ ^g/ a/ b/) (a/ g/ a/ b/) (a/ g/ a/ b/) g/ a/ b/ g/ | %16
 a A!mf! z/ a/ g/ f/ e/ d/ c/ e/ f/ g/ f/ g/ | e/ d/ c/ e/ f/ g/ f/ g/ e/ d/ c/ e/ f/ g/ f/ g/ | %18
 e .A z/ e/ f/ e/ d/ c/ B/ c/ d/ e/ d/ e/ | d/ c/ B/ c/ d/ e/ d/ e/ d/ c/ B/ c/ d/ f/ e/ d/ | %20
 c/ d/ c/ B/ A/!mp!!mp! a/ b/ a/ g/ f/ e/ f/ g/ a/ g/ a/ | %21
 g/ f/ e/ f/ g/ b/ a/ g/ f/ e/ d/ e/ f/ g/ f/ g/ | %22
 f/ e/ d/ e/ f/ a/ g/ f/ e/ d/ c/ d/ e/ f/ e/ f/ | %23
 e/ d/ c/ d/ e/ g/ f/ e/ d/ f/ e/ f/ c/ f/ e/ f/ | d/ f/ e/ f/ c/ f/ e/ f/ d B!mf! .f .f | %25
 f g/ f/ .e .e e f/ e/ .d .d | d/ f/ e/ d/ Pc c/ B/ B2 !tenuto!.f !tenuto!.f | %27
 f/ a/ g/ f/ !tenuto!.e !tenuto!.e e/ g/ f/ e/ d (b/ a/) | %28
 (g/ f/ e/ d/) d/ Tc/ c/ B/ B/ f/ e/ f/ d/ e/ c/ d/ | %29
 B/ B/ c/ d/ B/ B/ c/ ^d/ e/ g/ f/ g/ e/ f/ =d/ e/ | %30
 c/ c/ d/ e/ c/ c/ d/ e/ f/ a/ g/ a/ f/ g/ e/ f/ | %31
 d/ d/ e/ f/ d/ d/ e/ f/ g/ a/ b/ a/ g/ a/ f/ g/ | %32
 e/ f/ g/ f/ e/ f/ d/ e/ c/ d/ e/ d/ c/ d/ B/ c/ | A2!mf! z/ a/ g/ f/ e/ d/ c/ e/ f/ g/ f/ g/ | %34
 e/ d/ c/ e/ f/ g/ f/ g/ e/ d/ c/ e/ f/ g/ f/ g/ | %35
 !tenuto!.e .A .a !tenuto!.a a g/ f/ .g !tenuto!.g | g f/ e/ .f !tenuto!.f f e/ d/ .e !tenuto!.e | %37
 e d/ c/ .d !tenuto!.d d2 c3/4 c/4- c | d!mp! a/ g/ .a .a e a/ g/ .a .a | %39
 f a/!pp! g/ .a .a e!pp! a/!<(! g/ .a .a!<)! |!mp! f/ g/ f/ e/ d .f e/ d/ e/ g/ f/ e/ f/ a/ | %41
 g/ f/ g/ a/ g/ b/ a/ g/ f/ e/ f/ g/ f/ a/ g/ f/ | %42
 (e/ d/ c/ !tenuto!.e/) (f/ e/ d/ !tenuto!.f/) (e/ d/ c/ !tenuto!.e/) (f/ e/ d/ !tenuto!.f/) | %43
 (e/ d/ c/ !tenuto!.e/) (d/ c/ B/ !tenuto!.d/) (c/ B/ A/ !tenuto!.c/) (d/ c/ B/ !tenuto!.d/) | %44
 (c/ B/ A/ !tenuto!.c/) (d/ c/ B/ !tenuto!.d/) (e/ d/ c/ !tenuto!.e/) (f/ e/ d/ !tenuto!.f/) | %45
 (g/ f/ e/ !tenuto!.f/) (g/ f/ g/ !tenuto!.e/) (a/ g/ a/ !tenuto!.b/) (a/ g/ a/ !tenuto!.b/) | %46
 (a/ g/ a/ !tenuto!.b/) (a/ g/ a/ !tenuto!.b/) (a/ g/ a/ !tenuto!.b/) (a/ g/ a/ !tenuto!.b/) | %47
 a g/ f/ e/ d/ c/ B/ c A !tenuto!.f .f | e e/ d/ .e !tenuto!.e d a/ g/ .a .a | %49
 e a/ g/ .a .a f a/ g/ .a .a | e a/ g/ .a !tenuto!.a f/ a/ g/ f/ e/ d/ c/ B/ | %51
 A d G c !fermata!d4 |] %52
V:6
 !tenuto!.[Ad]/ | !tenuto!.[Ad]3 z/ !tenuto!.[Ad]/ [Ad]2 [Ac] [Gc] | %2
 x3 z/ !tenuto!.[FB]/ [FB]2 [FA] [EA] | x3 z/ !tenuto!.[DG]/ [DG]2 [FA] [FA] | %4
 !arpeggio![A,EA]2 x6 | x8 | x3 .[ce] [Ad]2 z2 | [Ae]2 z2 [Ad]2 z2 | A2 z2 A2 E2 | %9
 .E .F E2 [FA] z z2 | x8 | x8 | x8 | x8 | x8 | x8 | x8 | x8 | x8 | x8 | x8 | x8 | x8 | x8 | %24
 x6 z .d | d2 z .c c2 z .B | B2 ^A2 B2 !tenuto!.d !tenuto!.c | B2 !tenuto!.c !tenuto!.B ^A2 B2 | %28
 z2 ^A2 x4 | x8 | x8 | x8 | x8 | x8 | x8 | x2 z !tenuto!.[cf] !tenuto!.[Bf]2 z !tenuto!.[Be] | %36
 !tenuto!.[Ae]2 z !tenuto!.[Ad] !tenuto!.[Gd]2 z !tenuto!.[Gc] | %37
 !tenuto!.[Fc]2 z !tenuto!.[FB] [EB]2 [EGA]2 | [FA] z2 .[df] [ce]2 z .[ce] | %39
 [df]2 z .[df] [ce]2 z .[ce] | d2 x6 | x8 | x8 | x8 | x8 | x8 | x8 | x6 !tenuto!.[Ad] .[Ad] | %48
 [Bd]2 .[Ac] !tenuto!.[Gc] [FA] z2 .[df] | [ce]2 z .[Ae] [Ad]2 z .[df] | [ce]2 z [Ae] [Ad] z z2 | %51
 F2 E2 [FA]4 |] %52
V:7
 !tenuto!.D/ | !tenuto!.D3 z/ !tenuto!.D/ D2 A,2 | z2 z z/ !tenuto!.B,/ B,2 F,2 | %3
 z2 z z/ !tenuto!.G,/ G,2 D,2 | z2 z2 [E,A,]2 A,2 | [B,,D,E,]2 [C,E,]2 z !tenuto!.A, D2 | %6
 C z2 .[E,A,] [F,A,]2 z2 | C2 z2 [A,D]2 z2 | C2 z2 [A,D]2 B,2 | .A, .A, A,2 A,2 z C | %10
 D2 z A, A,2 .D2 | C D E !tenuto!.C[K:treble] D F !tenuto!.B .B, | C E .A .A, B, D .E .^G, | %13
 A, B, .C .A,[K:bass] D, .D E, .E | A, [CE]2 [B,E]2 [A,C]2 [^G,C]- | %15
 [G,C] [F,A,]2 [E,A,]2 !tenuto!.[F,A,] E, .E,, | z/ A,/ B,/ C/ .D .D .C .C .D .D | %17
 .C .C .D .D .C .C .D .D | .C z2 .[C,E,A,] [^G,B,] [G,B,] .[G,B,] .[G,B,] | %19
 [^G,B,] [G,B,] .[G,B,] .[G,B,] [G,B,] [G,B,] .[G,B,] .[G,B,] | %20
 A, .B, C .D!p!!<(! E/ D/ C/ B,/!<)!!mp! .A, .C |!p!!<(! E/ D/ C/ B,/!<)!!mp! .A, .C D .A, D, .A, | %22
!p!!<(! D/ C/ B,/ A,/!<)!!mp! .^G, .B, C .G, C, .G, | %23
!p!!<(! C/ B,/ ^A,/ ^G,/!<)!!mp! .F, .A, B, .B,, ^A,, .A, | B, .B,, ^A,, .^A, B,2 z .B, | %25
 G,2 z .F, F,2 z .F, | G, E, F,2 B,,/ F,/!mp! ^G,/ ^A,/ B,/ D/ E/ F/ | %27
 G .G, z/ C/ D/ E/ F .F, z/ B,/ C/ D/ | E .C F .F, B, !tenuto!.B,, z2 | %29
 B,,2 A,,2 G,,/ E,/ =D,/ E,/ C,/ D,/ B,,/ C,/ | A,,2 A,,2 D,/ F,/ E,/ F,/ D,/ E,/ C,/ D,/ | %31
 B,,2 B,,2 E,/ F,/ G,/ F,/ E,/ F,/ D,/ E,/ | C,/ D,/ E,/ D,/ C,/ D,/ B,,/ C,/ A,,4- | %33
 z/ A,/ B,/ C/ .D .D .C .C .D .D | .C .C .D .D .C .C .D .D | %35
[K:treble] !tenuto!.A,/ A/ G/ A/ F/ G/ E/ F/ D/ F/ B,/ D/[K:bass] !tenuto!.E,/ E/ D/ E/ | %36
 C/ E/ A,/ C/ !tenuto!.D,/ D/ C/ D/ B,/ D/ G,/ B,/ !tenuto!.C,/ C/ B,/ C/ | %37
 A,/ C/ F,/ A,/ !tenuto!.B,,/ B,/ A,/ B,/ G,/ B,/ E,/ G,/ !tenuto!.A,,/ A,/ G,/ A,/ | %38
 D,2 z A,/ ^G,/ A, .A,, z A,/ ^G,/ | A, .D, z A,/ ^G,/ A, .A,, z/ A,/ =G,/ A,/ | %40
 D, .A, z/!mf! A,/ G,/ A,/ z/ A,/ G,/ A,/ z/ B,/ A,/ B,/ | %41
 z/ C/ B,/ C/ z/ C/ B,/ C/ D/ C/ D/ A,/ D,/ F,/ E,/ D,/ | A,8- | A,8- | A,8- | %45
 A,2 z/ A,/ B,/ C/ D/ F/ E/ D/ C/ B,/ A,/ G,/ | %46
 F,/ B,/ A,/ G,/ F,/ E,/ D,/ C,/ D,/ F,/ E,/ D,/ C,/ B,,/ A,,/ G,,/ | %47
 F,,/ A,,/ B,,/ A,,/ G,,/ F,,/ E,,/ D,,/ A,,/ G,,/ F,,/ E,,/ .D,,/ D,/ C,/ D,/ | %48
 .G,,/ G,/ F,/ G,/ .A,,/ A,/ G,/ A,/ D,2 z[K:treble] A/ ^G/ | %49
 A .A, z[K:bass] D/ C/ D .D, z A,/ ^G,/ | %50
 A, .A,, z D,/ C,/ !tenuto!.D,/ D,,/ E,,/ F,,/ G,,/ A,,/ B,,/ C,/ | %51
 D,/ E,/ F,/ G,/ A,/ G,/ A,/ A,,/ !fermata![D,,D,]4 |] %52
V:8
 x/ | x8 | x8 | x8 | x4 C,2 D,2 | G,,2 A,,2 D,3 D, | A, A,,/ B,,/ !tenuto!.C, A,, D,2 z2 | %7
 A,2 z2 D,2 z2 | A,2 z2 D,2 G,2 | A, F,/ G,/ A, .A,, D,2 z A, | D,2 z C, D, E, F, D, | %11
 A, B, !tenuto!.C A,[K:treble] x4 | x8 | x4[K:bass] x4 | A,2 ^G,2 F,2 E,2 | D,2 C,2 D,2 E,2 | %16
 A,, z2 .D, .A, .A, .D, .D, | .A, .A, .D, .D, .A, .A, .D, .D, | %18
 .A, A,,/ B,,/ .C, .A,, E, E, .E, .E, | E, E, .E, .E, E, E, .E, .E, | A,, z x6 | x8 | x8 | x8 | %24
 x4 z B,,/ C,/ .D, .B,, | C, B,, .C, .^A,, B,, C, .D, .B,, | E, C, F, F,, x4 | x8 | x8 | %29
 x/ D,3/2 x/ ^D,3/2 x4 | x/ C,3/2 x/ C,3/2 x4 | x/ D,3/2 x/ D,3/2 x4 | x8 | %33
 A,, z2 .D, .A, .A, .D, .D, | .A, .A, .D, .D, .A, .A, .D, .D, |[K:treble] x6[K:bass] x2 | x8 | x8 | %38
 x8 | x8 | x4 C,2 !tenuto!.D,2 | E,2 !tenuto!.A,2 x4 | z A,,3- A,,4- | A,,8- | A,,8- | A,,2 x6 | %46
 x8 | x8 | x7[K:treble] x | x3[K:bass] x5 | x8 | x8 |] %52
V:9
 x/ | x8 | x8 | x8 | x8 | x8 | x8 | x8 | x8 | x8 | x8 | x4[K:treble] x4 | x8 | x4[K:bass] x4 | x8 | %15
 x8 | x8 | x8 | x8 | x8 | x8 | x8 | x8 | x8 | x8 | x8 | x8 | x8 | x8 | x F, x F, x4 | %30
 x E, x E, x4 | x F, x F, x4 | x8 | x8 | x8 |[K:treble] x6[K:bass] x2 | x8 | x8 | x8 | x8 | x8 | %41
 x8 | x8 | x8 | x8 | x8 | x8 | x8 | x7[K:treble] x | x3[K:bass] x5 | x8 | x8 |] %52
V:10
 x/ | x8 | x8 | x8 | x8 | x8 | x8 | x8 | x8 | x8 | x8 | x4[K:treble] x4 | x8 | x4[K:bass] x4 | x8 | %15
 x8 | x8 | x8 | x8 | x8 | x8 | x8 | x8 | x8 | x8 | x8 | x8 | x8 | x8 | x3/2 B,/ x3/2 B,/ x4 | %30
 x3/2 A,/ x3/2 G,/ x4 | x3/2 B,/ x3/2 A,/ x4 | x8 | x8 | x8 |[K:treble] x6[K:bass] x2 | x8 | x8 | %38
 x8 | x8 | x8 | x8 | x8 | x8 | x8 | x8 | x8 | x8 | x7[K:treble] x | x3[K:bass] x5 | x8 | x8 |] %52

